assets/ios/swift/Icons.xcassets/volumeOnSolid.imageset/volumeOnSolid.svg

<svg width="24" height="24" viewBox="0 0 24 24" fill="none" xmlns="http://www.w3.org/2000/svg">
<path d="M3 13.9999V9.9999C3 8.89533 3.89543 7.9999 5 7.9999H7L10.2929 4.70701C10.9229 4.07704 12 4.52321 12 5.41411V18.5857C12 19.4766 10.9229 19.9228 10.2929 19.2928L7 15.9999H5C3.89543 15.9999 3 15.1045 3 13.9999Z" fill="black"/>
<path d="M14.1215 8.4643C14.5121 8.07378 15.1452 8.07378 15.5358 8.46431C16.4395 9.36803 17.0002 10.6194 17.0002 11.9998C17.0002 13.3803 16.4395 14.6316 15.5357 15.5354C15.1452 15.9259 14.512 15.9259 14.1215 15.5354C13.731 15.1448 13.731 14.5117 14.1215 14.1211C14.6655 13.5772 15.0002 12.8285 15.0002 11.9998C15.0002 11.1711 14.6655 10.4225 14.1215 9.87851C13.731 9.48799 13.731 8.85482 14.1215 8.4643Z" fill="black"/>
<path d="M16.9498 5.63593C17.3403 5.24541 17.9735 5.24541 18.364 5.63594C19.9916 7.26352 21 9.51487 21 11.9998C21 14.4848 19.9915 16.7362 18.364 18.3637C17.9735 18.7543 17.3403 18.7543 16.9498 18.3637C16.5593 17.9732 16.5593 17.3401 16.9498 16.9495C18.2176 15.6817 19 13.9331 19 11.9998C19 10.0666 18.2176 8.31798 16.9498 7.05014C16.5593 6.65961 16.5593 6.02645 16.9498 5.63593Z" fill="black"/>
</svg>

<svg xmlns="http://www.w3.org/2000/svg" width="24" height="24" fill="black" viewBox="0 0 24 24">
  <path d="M3 14v-4a2 2 0 0 1 2-2h2l3.293-3.293c.63-.63 1.707-.184 1.707.707v13.172c0 .89-1.077 1.337-1.707.707L7 16H5a2 2 0 0 1-2-2Zm11.121-5.536a1 1 0 0 1 1.415 0A4.987 4.987 0 0 1 17 12c0 1.38-.56 2.632-1.464 3.536a1 1 0 0 1-1.415-1.415 2.988 2.988 0 0 0 .88-2.121c0-.829-.335-1.577-.88-2.121a1 1 0 0 1 0-1.415Z"/>
  <path d="M16.95 5.636a1 1 0 0 1 1.414 0A8.975 8.975 0 0 1 21 12a8.975 8.975 0 0 1-2.636 6.364 1 1 0 0 1-1.414-1.414A6.975 6.975 0 0 0 19 12a6.975 6.975 0 0 0-2.05-4.95 1 1 0 0 1 0-1.414Z"/>
</svg>
